!!!ONB: MCCC : ICD0085_01 : Extracted Monophonic Melody
!!!COM: Debussy, Claude
!!!OPR: Suite Bergamasque
!!!OMV: 1
!!!SCT: CD 82 ; L.75
!!!ODT: 1890///
**kern
*staff1
*clefG2
*k[b-]
*F:
*M4/4
2gg[
=2
16gg]
16aa
16bb-
16aa
16gg
16aa
16gg
16ff
16dd
16ff
16dd
16cc
16b-
16g
16d
16e
=3
16g
16f
16g
16a
4g
4g
4d
=4
16g
16f
16g
16a
4g
4g
4d[
=5
4d]
4aa[
8aa]
8gg
8ff
8gg[
=6
16gg]
16ff
16ee
16gg
2ff
8dd
8cc
=7
2r
2gg[
=8
16gg]
16aa
16bb-
16aa
16gg
16aa
16gg
16ff
16dd
16ff
16dd
16cc
16b-
16g
16d
16e
=9
16g
16f
16g
16a
4g[
16g]
16f
16g
16a
16cc
16a
16g
16f
=10
16g
16f
16g
16a
4g
4g
4e-
=11
4r
4ff[
8ff]
16ee
16ff
8ee
16dd
16ee
=12
8dd
8cc
8cc
8dd
8ee
8gg
8gg
8aa
=13
4r
4ff[
8ff]
16ee
16ff
8ee
16dd
16ee
=14
8dd
8cc
8cc
8dd
8ee
8gg
8gg
8aa
=15
8r
8ccc
16bb-
16aa
8gg[
16gg]
16ff
16gg
16aa
8ee
8dd
=16
4.f
16g
16f
16g
16a
8e
8d
8f
=17
1r
=18
8d
8f
4g[
8g]
24g
24a
24g
8f
8e
=19
4f
8f
8f
4f
4c
=20
4eee
4bb
8aa
8ee
32b
32a
32b
32dd
8r
=21
4eee
4bb
8aa
8ee
8b
8a
=22
32a
32b
32a
32g
8r
4e
8d
8e
8f
8a
=23
8e
16d
16e
8d
8e[
4e]
8r
8e
=24
4eee
4bb
8aa
8ee
32b
32a
32b
32dd
8r
=25
4eee
8bb
8aa
4aaa
8eee
8ddd
=26
32dd
32ee
32ff
32aa
8r
8ddd
8eee
32a
32cc
32dd
32gg
8aa[
16aa]
16gg
16aa
16ccc
=27
32dd
32ee
32ff
32aa
8r
8ddd
8eee
32a
32cc
32dd
32gg
8aa[
16aa]
16bb
16aa
16gg
=28
32c#
32e-
32f#
32a
8r
8cc#
8ee-
32c#
32d#
32e
32f#
8a-[
16a-]
16b
16a-
16b
=29
32c#
32e-
32f#
32a
8cc#[
16cc#]
16ee-
16cc#
16ee-
32cc#
32dd#
32ee
32ff#
8aa-[
16aa-]
16bb
16aa-
16bb
=30
8ddd
16ccc
16bb
16aa
16gg
16aa
16bb
16ee
16ff
16gg
16aa
16dd
16ee
16ff
16gg
=31
16cc
16dd
16ee
16ff
4b[
8b]
16dd
16ee
4a[
=32
8a]
16b
16a
16g#
16a
16f#
16g#
8a
16b
16a
8f#
8g#
=33
8a
16a
16a
16a
8.a
8a
16a
16a
16a
16a
8a
=34
4e
2.B-
=35
1r
=36
4eee
4bb
8aa
8ee
32b
32a
32b
32dd
8r
=37
4eee
4bb
8aa
8ee
8b
8a[
=38
4a]
4e
8d
8e
8f
8a
=39
8e
16d
16e
4d
8e
16d
16e
8d
8e
=40
4eee
4bb
8aa
8ee
32b
32a
32b
32dd
8r
=41
4eee
8bb
16aa
16aa
4ee
4b
=42
4a
8e
8d
2r
=43
1r
=44
1r
=45
1r
=46
1r
=47
1r
=48
8r
16f
16g
4a[
8a]
8b-
8cc
8dd
=49
8ee-
8ff
8gg
8bb-
8ccc
8aa
8gg
8ee-
=50
8r
16f
16g
4a[
8a]
8b-
8cc
8dd
=51
8ee-
8ff
8gg
8bb-
8ccc
8aa
8bb-
8ccc
=52
8ccc
8aa
4bb-
8ccc
8aa
8bb-
8ccc
=53
8ccc
16bb-
16aa
8gg
8aa
8bb-
8gg
8aa
8bb-
=54
8ccc
8aa
4bb-
8ccc
8aa
8bb-
8ccc
=55
4ccc
2.ee
=56
1ee
=57
1dd#
=58
1ee
=59
8ee-
16ee-
16ee-
8ee-
8ee-
8ee-
8ee-
8ee-[
8ee-]
=60
8bb-
8gg
8aa
8bb-
8bb-
8gg
8aa
8bb-
=61
4bb-[
2.bb-]
=62
8bb-
8gg
8aa
8bb-
8bb-
8gg
8aa
8bb-
=63
4bb-
2bb-
8bb-[
8bb-]
=64
4ff
8aa
16gg
16aa
8ff
16ee
16ff
8dd
8ff
=65
24ccc
24ddd
24ccc
32ddd
32ccc
32ddd
32ccc
32ddd
32ccc
32ddd
32ccc
32ddd
32ccc
32ddd
32ccc
32ddd
32ccc
32ddd
32ccc
32ddd
32ccc
32ddd
32ccc
32ddd
32ccc
32ddd
32ccc
24ddd
24eee
24fff
=66
4ggg
4r
2gg[
=67
16gg]
16aa
16bb-
16aa
16gg
16aa
16gg
16ff
16dd
16ff
16dd
16cc
16b-
16g
16d
16e
=68
16g
16f
16g
16a
4g
4g
4d
=69
16g
16f
16g
16a
4g
4g
4d[
=70
4d]
4aa[
8aa]
8gg
8ff
8gg[
=71
16gg]
16ff
16ee
16gg
2ff
8dd
8cc
=72
2r
2gg[
=73
16gg]
16aa
16bb-
16aa
16gg
16aa
16gg
16ff
16dd
16ff
16dd
16cc
16b-
16g
16d
16e
=74
16g
16f
16g
16a
4g[
16g]
16f
16g
16a
16dd
16a
16g
16f
=75
16g
16f
16g
16a
4g[
16g]
16f
16g
16a
16dd
16a
16g
16f
=76
16ee
16b-
16a
16g
16ff
16cc
16b-
16a
16gg
16dd
16cc
16b-
16aa
16ee
16dd
16cc
=77
16bb-
16ff
16ee
16dd
16ccc
16gg
16ff
16ee
16ddd
16aa
16gg
16ff
16eee
16bb-
16aa
16gg
=78
16ggg
16ddd
16ccc
16bb-
4r
16ff
16gg
16aa
16bb-
16ccc
16ddd
16eee
16fff
=79
16ggg
16ddd
16ccc
16bb-
4r
16ff
16gg
16aa
16bb-
16ccc
16ddd
16eee
16fff
=80
16ggg
16ddd
16ccc
16bb-
4r
16gg
16aa
16bb-
16ccc
16ddd
16eee
16fff
16ggg
=81
4aaa
4g[
8g]
16f
16g
8f
16e-
16f
=82
8e-
8c
8d
8e-
16gg
16aa
16bb-
16ccc
16ddd
16eee
16fff
16ggg
=83
4aaa
4g[
8g]
16f
16g
8f
16e-
16f
=84
8e-
8c
8d
8e-
16gg
16aa
16bb-
16ccc
16ddd
16eee
16fff
16ggg
=85
4bbb-
4b-[
8b-]
16a
16b-
8a
16g
16a
=86
8g
8f
8g
8a
8b-
8cc
8dd
8ff
=87
2ccc
4ccc[
4ccc]
=88
4ccc
4r
2r
=89
4fff
4r
2r
==
*-
